report_00007_2020-12-11T15:55:29.892Z/bootup-time/comparison/sorted/1_vs_2.svg

<svg width="640" height="500" xmlns="http://www.w3.org/2000/svg" xmlns:xlink="http://www.w3.org/1999/xlink"><path fill="#fff" d="M0 0h640v500H0z"/><defs><path id="d" stroke-width=".222" stroke="currentColor" d="M-1-1h2v2h-2z"/><path id="b" stroke-width=".222" stroke="currentColor" d="M0-1.33l-1.33 2h2.66z"/><path id="f" stroke-width=".222" stroke="currentColor" d="M0 1.33L1.265.411.782-1.067l-1.564-.009-.483 1.487z"/><use xlink:href="#b" id="c" stroke="currentColor" transform="rotate(180)"/><use xlink:href="#d" id="e" stroke="currentColor" transform="rotate(45)"/><circle id="a" stroke-width=".222" stroke="currentColor" cx="0" cy="0" r="1"/></defs><g fill="none" color="#000" stroke="currentColor"><path stroke="#000" d="M53.9 396.8h9m552.1 0h-9"/><text transform="translate(45.6 400.7)" stroke="none" fill="#000" font-family="Arial" font-size="12" text-anchor="end"><tspan>550</tspan></text></g><g fill="none" color="#000" stroke="currentColor"><path stroke="#000" d="M53.9 301.8h9m552.1 0h-9"/><text transform="translate(45.6 305.7)" stroke="none" fill="#000" font-family="Arial" font-size="12" text-anchor="end"><tspan>600</tspan></text></g><g fill="none" color="#000" stroke="currentColor"><path stroke="#000" d="M53.9 206.8h9m552.1 0h-9"/><text transform="translate(45.6 210.7)" stroke="none" fill="#000" font-family="Arial" font-size="12" text-anchor="end"><tspan>650</tspan></text></g><g fill="none" color="#000" stroke="currentColor"><path stroke="#000" d="M53.9 111.8h9m552.1 0h-9"/><text transform="translate(45.6 115.7)" stroke="none" fill="#000" font-family="Arial" font-size="12" text-anchor="end"><tspan>700</tspan></text></g><g fill="none" color="#000" stroke="currentColor"><path stroke="#000" d="M53.9 428v-9m0-400.9v9"/><text transform="translate(53.9 449.9)" stroke="none" fill="#000" font-family="Arial" font-size="12" text-anchor="middle"><tspan>0</tspan></text></g><g fill="none" color="#000" stroke="currentColor"><path stroke="#000" d="M110.6 428v-9m0-400.9v9"/><text transform="translate(110.6 449.9)" stroke="none" fill="#000" font-family="Arial" font-size="12" text-anchor="middle"><tspan>10</tspan></text></g><g fill="none" color="#000" stroke="currentColor"><path stroke="#000" d="M167.3 428v-9m0-400.9v9"/><text transform="translate(167.3 449.9)" stroke="none" fill="#000" font-family="Arial" font-size="12" text-anchor="middle"><tspan>20</tspan></text></g><g fill="none" color="#000" stroke="currentColor"><path stroke="#000" d="M223.9 428v-9m0-400.9v9"/><text transform="translate(223.9 449.9)" stroke="none" fill="#000" font-family="Arial" font-size="12" text-anchor="middle"><tspan>30</tspan></text></g><g fill="none" color="#000" stroke="currentColor"><path stroke="#000" d="M280.6 428v-9m0-400.9v9"/><text transform="translate(280.6 449.9)" stroke="none" fill="#000" font-family="Arial" font-size="12" text-anchor="middle"><tspan>40</tspan></text></g><g fill="none" color="#000" stroke="currentColor"><path stroke="#000" d="M337.3 428v-9m0-400.9v9"/><text transform="translate(337.3 449.9)" stroke="none" fill="#000" font-family="Arial" font-size="12" text-anchor="middle"><tspan>50</tspan></text></g><g fill="none" color="#000" stroke="currentColor"><path stroke="#000" d="M394 428v-9m0-400.9v9"/><text transform="translate(394 449.9)" stroke="none" fill="#000" font-family="Arial" font-size="12" text-anchor="middle"><tspan>60</tspan></text></g><g fill="none" color="#000" stroke="currentColor"><path stroke="#000" d="M450.6 428v-9m0-400.9v9"/><text transform="translate(450.6 449.9)" stroke="none" fill="#000" font-family="Arial" font-size="12" text-anchor="middle"><tspan>70</tspan></text></g><g fill="none" color="#000" stroke="currentColor"><path stroke="#000" d="M507.3 428v-9m0-400.9v9"/><text transform="translate(507.3 449.9)" stroke="none" fill="#000" font-family="Arial" font-size="12" text-anchor="middle"><tspan>80</tspan></text></g><g fill="none" color="#000" stroke="currentColor"><path stroke="#000" d="M564 428v-9m0-400.9v9"/><text transform="translate(564 449.9)" stroke="none" fill="#000" font-family="Arial" font-size="12" text-anchor="middle"><tspan>90</tspan></text></g><path stroke="#000" d="M53.9 18.1V428H615V18.1H53.9z" fill="none" color="#000"/><text transform="translate(275.6 467.9)" stroke="none" fill="#000" font-family="Arial" font-size="12" text-anchor="end" color="#000"><tspan>pages</tspan></text><path stroke="#9400D3" d="M283.9 464h42.2M53.9 388.2l5.7-14.7 5.6-.3 5.7-.2 5.7-1.2 5.6-.2 5.7-2.1 5.7-2.9 5.6-5.8 5.7-2.9 5.7-2 5.6-.4 5.7-2.9 5.7-1.1 5.6-1.3 5.7-.7 5.7-.9 5.7-2.1 5.6-1.3 5.7-1.5 5.7-2.2 5.6-1 5.7-1.8 5.7-.2 5.6-.1 5.7-.1 5.7-.4 5.6-.8 5.7-1.5 5.7-.2 5.6-.2 5.7-.2 5.7-.5 5.6-.1 5.7-.6 5.7-.4 5.6-.8 5.7-1h5.7l5.6-.4 5.7-1.1 5.7-.2 5.6-.5 5.7-1.2 5.7-2.3 5.6-.2 5.7-.6 5.7-.2 5.6-.1 5.7-.3 5.7-.5 5.7-.4 5.6-.1 5.7-.7 5.7-.1 5.6-.3 5.7-1.5 5.7-.3 5.6-.1h5.7l5.7-.1 5.6-2.8 5.7-1.2 5.7-1.4 5.6-.5 5.7-1.1 5.7-.8 5.6-1.3 5.7-1.2 5.7-.2 5.6-1.5 5.7-1.1 5.7-.4 5.6-.5h5.7l5.7-2.1 5.6-1.4 5.7-.9 5.7-.8 5.6-2 5.7-2.7 5.7-1.8 5.6-1.4 5.7-.1 5.7-.4 5.7-.9 5.6-2.4 5.7-.5h5.7l5.6-1.5 5.7-.4 5.7-1 5.6-2.6 5.7-2.5 5.7-2.2 5.6-8.6 5.7-.1 5.7-139 5.6-32.3L615 26" fill="none" color="#000"/><text transform="translate(275.6 485.9)" stroke="none" fill="#000" font-family="Arial" font-size="12" text-anchor="end" color="#000"><tspan>pages+cached</tspan></text><path stroke="#009E73" d="M283.9 482h42.2M53.9 420.1l5.7-7.4 5.6-1.1 5.7-4.2 5.7-.3 5.6-.8 5.7-.4 5.7-1.2 5.6-1.2 5.7-.3 5.7-.7 5.6-.2 5.7-.1 5.7-.3 5.6-.7 5.7-.4 5.7-.2 5.7-.8 5.6-.6 5.7-.1 5.7-.1 5.6-.3h5.7l5.7-.3 5.6-.1 5.7-.3 5.7-.7 5.6-2 5.7-.2h5.7l5.6-.1 5.7-.6 5.7-.6 5.6-.9 5.7-1.5 5.7-.7 5.6-1 5.7-.1 5.7-1.1 5.6-1.9 5.7-.6 5.7-.1 5.6-.2 5.7-1.2 5.7-1.8 5.6-1.4 5.7-1.3 5.7-.8 5.6-1.8 5.7-1.1 5.7-.6 5.7-1.3 5.6-1.4 5.7-10.6 5.7-.2h5.6l5.7-1.2 5.7-.9 5.6-2.1 5.7-.3 5.7-1.1h5.6l5.7-1.7 5.7-.4 5.6-.1 5.7-.1 5.7-1.9 5.6-.2 5.7-.5 5.7-.1 5.6-.4 5.7-1.2 5.7-.3 5.6-1 5.7-1.7 5.7-.1 5.6-.5 5.7-2.1h5.7l5.6-.6 5.7-.5 5.7-1 5.6-.9 5.7-1.4 5.7-1.5 5.7-2.6 5.6-.6 5.7-1.2 5.7-2.5 5.6-2.2 5.7-4.1 5.7-.9 5.6-3.1 5.7-10 5.7-2.3 5.6-8.6 5.7-2.6 5.7-24.7 5.6-27 5.7-1.3" fill="none" color="#000"/><text transform="translate(475.5 467.9)" stroke="none" fill="#000" font-family="Arial" font-size="12" text-anchor="end" color="#000"><tspan>score p10=1282</tspan></text><path stroke="#56B4E9" d="M483.8 464H526" fill="none" color="#000"/><g><text transform="translate(475.5 485.9)" stroke="none" fill="#000" font-family="Arial" font-size="12" text-anchor="end" color="#000"><tspan>score median=3500</tspan></text><path stroke="#E69F00" d="M483.8 482H526" fill="none" color="#000"/></g><g fill="none" color="#000" stroke="currentColor"><path stroke="#000" d="M53.9 18.1V428H615V18.1H53.9z"/></g></svg>

<?xml version="1.0" encoding="utf-8"  standalone="no"?>
<svg 
 width="640" height="500"
 viewBox="0 0 640 500"
 xmlns="http://www.w3.org/2000/svg"
 xmlns:xlink="http://www.w3.org/1999/xlink"
>

<title>Gnuplot</title>
<desc>Produced by GNUPLOT 5.4 patchlevel 0 </desc>

<g id="gnuplot_canvas">

<rect x="0" y="0" width="640" height="500" fill="#ffffff"/>
<defs>

	<circle id='gpDot' r='0.5' stroke-width='0.5' stroke='currentColor'/>
	<path id='gpPt0' stroke-width='0.222' stroke='currentColor' d='M-1,0 h2 M0,-1 v2'/>
	<path id='gpPt1' stroke-width='0.222' stroke='currentColor' d='M-1,-1 L1,1 M1,-1 L-1,1'/>
	<path id='gpPt2' stroke-width='0.222' stroke='currentColor' d='M-1,0 L1,0 M0,-1 L0,1 M-1,-1 L1,1 M-1,1 L1,-1'/>
	<rect id='gpPt3' stroke-width='0.222' stroke='currentColor' x='-1' y='-1' width='2' height='2'/>
	<rect id='gpPt4' stroke-width='0.222' stroke='currentColor' fill='currentColor' x='-1' y='-1' width='2' height='2'/>
	<circle id='gpPt5' stroke-width='0.222' stroke='currentColor' cx='0' cy='0' r='1'/>
	<use xlink:href='#gpPt5' id='gpPt6' fill='currentColor' stroke='none'/>
	<path id='gpPt7' stroke-width='0.222' stroke='currentColor' d='M0,-1.33 L-1.33,0.67 L1.33,0.67 z'/>
	<use xlink:href='#gpPt7' id='gpPt8' fill='currentColor' stroke='none'/>
	<use xlink:href='#gpPt7' id='gpPt9' stroke='currentColor' transform='rotate(180)'/>
	<use xlink:href='#gpPt9' id='gpPt10' fill='currentColor' stroke='none'/>
	<use xlink:href='#gpPt3' id='gpPt11' stroke='currentColor' transform='rotate(45)'/>
	<use xlink:href='#gpPt11' id='gpPt12' fill='currentColor' stroke='none'/>
	<path id='gpPt13' stroke-width='0.222' stroke='currentColor' d='M0,1.330 L1.265,0.411 L0.782,-1.067 L-0.782,-1.076 L-1.265,0.411 z'/>
	<use xlink:href='#gpPt13' id='gpPt14' fill='currentColor' stroke='none'/>
	<filter id='textbox' filterUnits='objectBoundingBox' x='0' y='0' height='1' width='1'>
	  <feFlood flood-color='#FFFFFF' flood-opacity='1' result='bgnd'/>
	  <feComposite in='SourceGraphic' in2='bgnd' operator='atop'/>
	</filter>
	<filter id='greybox' filterUnits='objectBoundingBox' x='0' y='0' height='1' width='1'>
	  <feFlood flood-color='lightgrey' flood-opacity='1' result='grey'/>
	  <feComposite in='SourceGraphic' in2='grey' operator='atop'/>
	</filter>
</defs>
<g fill="none" color="#FFFFFF" stroke="black" stroke-width="1.00" stroke-linecap="butt" stroke-linejoin="miter">
</g>
<g fill="none" color="black" stroke="currentColor" stroke-width="1.00" stroke-linecap="butt" stroke-linejoin="miter">
	<path stroke='black'  d='M53.9,396.8 L62.9,396.8 M615.0,396.8 L606.0,396.8  '/>	<g transform="translate(45.6,400.7)" stroke="none" fill="black" font-family="Arial" font-size="12.00"  text-anchor="end">
		<text><tspan font-family="Arial" > 550</tspan></text>
	</g>
</g>
<g fill="none" color="black" stroke="currentColor" stroke-width="1.00" stroke-linecap="butt" stroke-linejoin="miter">
	<path stroke='black'  d='M53.9,301.8 L62.9,301.8 M615.0,301.8 L606.0,301.8  '/>	<g transform="translate(45.6,305.7)" stroke="none" fill="black" font-family="Arial" font-size="12.00"  text-anchor="end">
		<text><tspan font-family="Arial" > 600</tspan></text>
	</g>
</g>
<g fill="none" color="black" stroke="currentColor" stroke-width="1.00" stroke-linecap="butt" stroke-linejoin="miter">
	<path stroke='black'  d='M53.9,206.8 L62.9,206.8 M615.0,206.8 L606.0,206.8  '/>	<g transform="translate(45.6,210.7)" stroke="none" fill="black" font-family="Arial" font-size="12.00"  text-anchor="end">
		<text><tspan font-family="Arial" > 650</tspan></text>
	</g>
</g>
<g fill="none" color="black" stroke="currentColor" stroke-width="1.00" stroke-linecap="butt" stroke-linejoin="miter">
	<path stroke='black'  d='M53.9,111.8 L62.9,111.8 M615.0,111.8 L606.0,111.8  '/>	<g transform="translate(45.6,115.7)" stroke="none" fill="black" font-family="Arial" font-size="12.00"  text-anchor="end">
		<text><tspan font-family="Arial" > 700</tspan></text>
	</g>
</g>
<g fill="none" color="black" stroke="currentColor" stroke-width="1.00" stroke-linecap="butt" stroke-linejoin="miter">
	<path stroke='black'  d='M53.9,428.0 L53.9,419.0 M53.9,18.1 L53.9,27.1  '/>	<g transform="translate(53.9,449.9)" stroke="none" fill="black" font-family="Arial" font-size="12.00"  text-anchor="middle">
		<text><tspan font-family="Arial" > 0</tspan></text>
	</g>
</g>
<g fill="none" color="black" stroke="currentColor" stroke-width="1.00" stroke-linecap="butt" stroke-linejoin="miter">
	<path stroke='black'  d='M110.6,428.0 L110.6,419.0 M110.6,18.1 L110.6,27.1  '/>	<g transform="translate(110.6,449.9)" stroke="none" fill="black" font-family="Arial" font-size="12.00"  text-anchor="middle">
		<text><tspan font-family="Arial" > 10</tspan></text>
	</g>
</g>
<g fill="none" color="black" stroke="currentColor" stroke-width="1.00" stroke-linecap="butt" stroke-linejoin="miter">
	<path stroke='black'  d='M167.3,428.0 L167.3,419.0 M167.3,18.1 L167.3,27.1  '/>	<g transform="translate(167.3,449.9)" stroke="none" fill="black" font-family="Arial" font-size="12.00"  text-anchor="middle">
		<text><tspan font-family="Arial" > 20</tspan></text>
	</g>
</g>
<g fill="none" color="black" stroke="currentColor" stroke-width="1.00" stroke-linecap="butt" stroke-linejoin="miter">
	<path stroke='black'  d='M223.9,428.0 L223.9,419.0 M223.9,18.1 L223.9,27.1  '/>	<g transform="translate(223.9,449.9)" stroke="none" fill="black" font-family="Arial" font-size="12.00"  text-anchor="middle">
		<text><tspan font-family="Arial" > 30</tspan></text>
	</g>
</g>
<g fill="none" color="black" stroke="currentColor" stroke-width="1.00" stroke-linecap="butt" stroke-linejoin="miter">
	<path stroke='black'  d='M280.6,428.0 L280.6,419.0 M280.6,18.1 L280.6,27.1  '/>	<g transform="translate(280.6,449.9)" stroke="none" fill="black" font-family="Arial" font-size="12.00"  text-anchor="middle">
		<text><tspan font-family="Arial" > 40</tspan></text>
	</g>
</g>
<g fill="none" color="black" stroke="currentColor" stroke-width="1.00" stroke-linecap="butt" stroke-linejoin="miter">
	<path stroke='black'  d='M337.3,428.0 L337.3,419.0 M337.3,18.1 L337.3,27.1  '/>	<g transform="translate(337.3,449.9)" stroke="none" fill="black" font-family="Arial" font-size="12.00"  text-anchor="middle">
		<text><tspan font-family="Arial" > 50</tspan></text>
	</g>
</g>
<g fill="none" color="black" stroke="currentColor" stroke-width="1.00" stroke-linecap="butt" stroke-linejoin="miter">
	<path stroke='black'  d='M394.0,428.0 L394.0,419.0 M394.0,18.1 L394.0,27.1  '/>	<g transform="translate(394.0,449.9)" stroke="none" fill="black" font-family="Arial" font-size="12.00"  text-anchor="middle">
		<text><tspan font-family="Arial" > 60</tspan></text>
	</g>
</g>
<g fill="none" color="black" stroke="currentColor" stroke-width="1.00" stroke-linecap="butt" stroke-linejoin="miter">
	<path stroke='black'  d='M450.6,428.0 L450.6,419.0 M450.6,18.1 L450.6,27.1  '/>	<g transform="translate(450.6,449.9)" stroke="none" fill="black" font-family="Arial" font-size="12.00"  text-anchor="middle">
		<text><tspan font-family="Arial" > 70</tspan></text>
	</g>
</g>
<g fill="none" color="black" stroke="currentColor" stroke-width="1.00" stroke-linecap="butt" stroke-linejoin="miter">
	<path stroke='black'  d='M507.3,428.0 L507.3,419.0 M507.3,18.1 L507.3,27.1  '/>	<g transform="translate(507.3,449.9)" stroke="none" fill="black" font-family="Arial" font-size="12.00"  text-anchor="middle">
		<text><tspan font-family="Arial" > 80</tspan></text>
	</g>
</g>
<g fill="none" color="black" stroke="currentColor" stroke-width="1.00" stroke-linecap="butt" stroke-linejoin="miter">
	<path stroke='black'  d='M564.0,428.0 L564.0,419.0 M564.0,18.1 L564.0,27.1  '/>	<g transform="translate(564.0,449.9)" stroke="none" fill="black" font-family="Arial" font-size="12.00"  text-anchor="middle">
		<text><tspan font-family="Arial" > 90</tspan></text>
	</g>
</g>
<g fill="none" color="black" stroke="currentColor" stroke-width="1.00" stroke-linecap="butt" stroke-linejoin="miter">
</g>
<g fill="none" color="black" stroke="currentColor" stroke-width="1.00" stroke-linecap="butt" stroke-linejoin="miter">
	<path stroke='black'  d='M53.9,18.1 L53.9,428.0 L615.0,428.0 L615.0,18.1 L53.9,18.1 Z  '/></g>
<g fill="none" color="black" stroke="currentColor" stroke-width="1.00" stroke-linecap="butt" stroke-linejoin="miter">
</g>
	<g id="gnuplot_plot_1" ><title>pages</title>
<g fill="none" color="black" stroke="currentColor" stroke-width="1.00" stroke-linecap="butt" stroke-linejoin="miter">
	<g transform="translate(275.6,467.9)" stroke="none" fill="black" font-family="Arial" font-size="12.00"  text-anchor="end">
		<text><tspan font-family="Arial" >pages</tspan></text>
	</g>
</g>
<g fill="none" color="black" stroke="currentColor" stroke-width="1.00" stroke-linecap="butt" stroke-linejoin="miter">
	<path stroke='rgb(148,   0, 211)'  d='M283.9,464.0 L326.1,464.0 M53.9,388.2 L59.6,373.5 L65.2,373.2 L70.9,373.0 L76.6,371.8 L82.2,371.6
		L87.9,369.5 L93.6,366.6 L99.2,360.8 L104.9,357.9 L110.6,355.9 L116.2,355.5 L121.9,352.6 L127.6,351.5
		L133.2,350.2 L138.9,349.5 L144.6,348.6 L150.3,346.5 L155.9,345.2 L161.6,343.7 L167.3,341.5 L172.9,340.5
		L178.6,338.7 L184.3,338.5 L189.9,338.4 L195.6,338.3 L201.3,337.9 L206.9,337.1 L212.6,335.6 L218.3,335.4
		L223.9,335.2 L229.6,335.0 L235.3,334.5 L240.9,334.4 L246.6,333.8 L252.3,333.4 L257.9,332.6 L263.6,331.6
		L269.3,331.6 L274.9,331.2 L280.6,330.1 L286.3,329.9 L291.9,329.4 L297.6,328.2 L303.3,325.9 L308.9,325.7
		L314.6,325.1 L320.3,324.9 L325.9,324.8 L331.6,324.5 L337.3,324.0 L343.0,323.6 L348.6,323.5 L354.3,322.8
		L360.0,322.7 L365.6,322.4 L371.3,320.9 L377.0,320.6 L382.6,320.5 L388.3,320.5 L394.0,320.4 L399.6,317.6
		L405.3,316.4 L411.0,315.0 L416.6,314.5 L422.3,313.4 L428.0,312.6 L433.6,311.3 L439.3,310.1 L445.0,309.9
		L450.6,308.4 L456.3,307.3 L462.0,306.9 L467.6,306.4 L473.3,306.4 L479.0,304.3 L484.6,302.9 L490.3,302.0
		L496.0,301.2 L501.6,299.2 L507.3,296.5 L513.0,294.7 L518.6,293.3 L524.3,293.2 L530.0,292.8 L535.7,291.9
		L541.3,289.5 L547.0,289.0 L552.7,289.0 L558.3,287.5 L564.0,287.1 L569.7,286.1 L575.3,283.5 L581.0,281.0
		L586.7,278.8 L592.3,270.2 L598.0,270.1 L603.7,131.1 L609.3,98.8 L615.0,26.0  '/></g>
	</g>
	<g id="gnuplot_plot_2" ><title>pages+cached</title>
<g fill="none" color="black" stroke="currentColor" stroke-width="1.00" stroke-linecap="butt" stroke-linejoin="miter">
	<g transform="translate(275.6,485.9)" stroke="none" fill="black" font-family="Arial" font-size="12.00"  text-anchor="end">
		<text><tspan font-family="Arial" >pages+cached</tspan></text>
	</g>
</g>
<g fill="none" color="black" stroke="currentColor" stroke-width="1.00" stroke-linecap="butt" stroke-linejoin="miter">
	<path stroke='rgb(  0, 158, 115)'  d='M283.9,482.0 L326.1,482.0 M53.9,420.1 L59.6,412.7 L65.2,411.6 L70.9,407.4 L76.6,407.1 L82.2,406.3
		L87.9,405.9 L93.6,404.7 L99.2,403.5 L104.9,403.2 L110.6,402.5 L116.2,402.3 L121.9,402.2 L127.6,401.9
		L133.2,401.2 L138.9,400.8 L144.6,400.6 L150.3,399.8 L155.9,399.2 L161.6,399.1 L167.3,399.0 L172.9,398.7
		L178.6,398.7 L184.3,398.4 L189.9,398.3 L195.6,398.0 L201.3,397.3 L206.9,395.3 L212.6,395.1 L218.3,395.1
		L223.9,395.0 L229.6,394.4 L235.3,393.8 L240.9,392.9 L246.6,391.4 L252.3,390.7 L257.9,389.7 L263.6,389.6
		L269.3,388.5 L274.9,386.6 L280.6,386.0 L286.3,385.9 L291.9,385.7 L297.6,384.5 L303.3,382.7 L308.9,381.3
		L314.6,380.0 L320.3,379.2 L325.9,377.4 L331.6,376.3 L337.3,375.7 L343.0,374.4 L348.6,373.0 L354.3,362.4
		L360.0,362.2 L365.6,362.2 L371.3,361.0 L377.0,360.1 L382.6,358.0 L388.3,357.7 L394.0,356.6 L399.6,356.6
		L405.3,354.9 L411.0,354.5 L416.6,354.4 L422.3,354.3 L428.0,352.4 L433.6,352.2 L439.3,351.7 L445.0,351.6
		L450.6,351.2 L456.3,350.0 L462.0,349.7 L467.6,348.7 L473.3,347.0 L479.0,346.9 L484.6,346.4 L490.3,344.3
		L496.0,344.3 L501.6,343.7 L507.3,343.2 L513.0,342.2 L518.6,341.3 L524.3,339.9 L530.0,338.4 L535.7,335.8
		L541.3,335.2 L547.0,334.0 L552.7,331.5 L558.3,329.3 L564.0,325.2 L569.7,324.3 L575.3,321.2 L581.0,311.2
		L586.7,308.9 L592.3,300.3 L598.0,297.7 L603.7,273.0 L609.3,246.0 L615.0,244.7  '/></g>
	</g>
	<g id="gnuplot_plot_3" ><title>score p10=1282</title>
<g fill="none" color="black" stroke="currentColor" stroke-width="1.00" stroke-linecap="butt" stroke-linejoin="miter">
	<g transform="translate(475.5,467.9)" stroke="none" fill="black" font-family="Arial" font-size="12.00"  text-anchor="end">
		<text><tspan font-family="Arial" >score p10=1282</tspan></text>
	</g>
</g>
<g fill="none" color="black" stroke="currentColor" stroke-width="1.00" stroke-linecap="butt" stroke-linejoin="miter">
	<path stroke='rgb( 86, 180, 233)'  d='M483.8,464.0 L526.0,464.0  '/></g>
	</g>
	<g id="gnuplot_plot_4" ><title>score median=3500</title>
<g fill="none" color="black" stroke="currentColor" stroke-width="1.00" stroke-linecap="butt" stroke-linejoin="miter">
	<g transform="translate(475.5,485.9)" stroke="none" fill="black" font-family="Arial" font-size="12.00"  text-anchor="end">
		<text><tspan font-family="Arial" >score median=3500</tspan></text>
	</g>
</g>
<g fill="none" color="black" stroke="currentColor" stroke-width="1.00" stroke-linecap="butt" stroke-linejoin="miter">
	<path stroke='rgb(230, 159,   0)'  d='M483.8,482.0 L526.0,482.0  '/></g>
	</g>
<g fill="none" color="#FFFFFF" stroke="rgb(230, 159,   0)" stroke-width="2.00" stroke-linecap="butt" stroke-linejoin="miter">
</g>
<g fill="none" color="black" stroke="currentColor" stroke-width="2.00" stroke-linecap="butt" stroke-linejoin="miter">
</g>
<g fill="none" color="black" stroke="black" stroke-width="1.00" stroke-linecap="butt" stroke-linejoin="miter">
</g>
<g fill="none" color="black" stroke="currentColor" stroke-width="1.00" stroke-linecap="butt" stroke-linejoin="miter">
	<path stroke='black'  d='M53.9,18.1 L53.9,428.0 L615.0,428.0 L615.0,18.1 L53.9,18.1 Z  '/></g>
<g fill="none" color="black" stroke="currentColor" stroke-width="1.00" stroke-linecap="butt" stroke-linejoin="miter">
</g>
</g>
</svg>
